pro/src/icons/stroke-more.svg

<svg width="48" height="48" viewBox="0 0 48 48" fill="none" xmlns="http://www.w3.org/2000/svg">
<path id="icon" fill="currentColor" fill-rule="evenodd" clip-rule="evenodd" d="M24 43.0909C13.4545 43.0909 4.90909 34.5456 4.90909 24C4.90909 20.7523 5.71845 17.6905 7.15309 15.021C7.40265 14.5566 7.22851 13.9779 6.76414 13.7283C6.29977 13.4787 5.72101 13.6529 5.47146 14.1173C3.88973 17.0605 3 20.4323 3 24C3 35.5999 12.4001 45 24 45C35.5999 45 45 35.5999 45 24C45 12.4001 35.5999 3.00003 24 3.00003C20.3809 3.00003 16.9697 3.92018 13.9891 5.54049C13.5259 5.79228 13.3546 6.37186 13.6064 6.83502C13.8582 7.29819 14.4377 7.46955 14.9009 7.21776C17.6094 5.74534 20.7082 4.90912 24 4.90912C34.5455 4.90912 43.0909 13.4545 43.0909 24C43.0909 34.5456 34.5455 43.0909 24 43.0909ZM23.729 12.9142C24.2813 12.9148 24.7286 13.3629 24.728 13.9152L24.718 23.2164L33.9863 23.2281C34.5386 23.2287 34.9858 23.677 34.9852 24.2293C34.9846 24.7815 34.5363 25.2287 33.984 25.2281L24.7228 25.2163L24.7563 34.5102C24.7581 35.0625 24.3118 35.5117 23.7595 35.5135C23.2072 35.5153 22.7581 35.069 22.7563 34.5167L22.7228 25.2245L13.4491 25.2593C12.8968 25.2612 12.4476 24.815 12.4457 24.2627C12.4438 23.7104 12.89 23.2612 13.4423 23.2593L22.718 23.2245L22.728 13.9133C22.7286 13.361 23.1767 12.9137 23.729 12.9142Z" />
</svg>

<svg xmlns="http://www.w3.org/2000/svg" width="48" height="48" fill="none"><path id="icon" fill="currentColor" fill-rule="evenodd" d="M24 43.09C13.455 43.09 4.91 34.547 4.91 24c0-3.248.808-6.31 2.243-8.979a.955.955 0 1 0-1.682-.904A20.8 20.8 0 0 0 3 24c0 11.6 9.4 21 21 21s21-9.4 21-21S35.6 3 24 3c-3.62 0-7.03.92-10.01 2.54a.954.954 0 1 0 .91 1.678A19 19 0 0 1 24 4.909c10.545 0 19.09 8.546 19.09 19.091S34.546 43.09 24 43.09m-.271-30.176a1 1 0 0 1 .999 1.001l-.01 9.301 9.268.012a1 1 0 0 1-.002 2l-9.261-.012.033 9.294a1 1 0 0 1-2 .007l-.033-9.293-9.274.035a1 1 0 1 1-.007-2l9.276-.035.01-9.31a1 1 0 0 1 1.001-1" clip-rule="evenodd"/></svg>
